X:674
T:Polska
T:efter Alfred Petersson, Nättraby, Blekinge (SvL, Band 18, nr 282)
O:Nättraby, Blekinge
N:Svenska Låtar, Band 18 nr 282
B:Svenska Låtar Blekinge
R:Polska
C:Alfred Petersson
M:3/4
L:1/16
Q:1/4=100
Z:Transponerad till D dur av Peter Svensson 2015-06-08
K:D
|:F2A2 (AF)DF (GF)GB|B2A2 (AF)DF (GF)GB|A2FA d2Ad f2f2|efed cdcB ABAG|
F2A2 (AF)DF( GF)GB|B2A2 (AF)DF (GF)GB|A2FA d2Ad f2f2|egce e4 d4:|
|:c2e2 (ec)Ac (dc)df|f2e2 (ec)Ac (dc)df|e2ef g2gf e2e2|dcdf edcB ABAG|
F2A2 (AF)DF (GF)GB|B2A2 AFDF GFGB|A2FA d2Ad f2f2|egce e4 d4:|
(:musicend:)
(:music:)
